img/vector-16.svg

<svg fill="none" height="50" viewBox="0 0 61 50" width="61" xmlns="http://www.w3.org/2000/svg"><path d="m23.9324 45.7792c.2014-.2014.2014-.5279 0-.7292l-3.2812-3.2813c-.2014-.2013-.5278-.2013-.7292 0-.2013.2014-.2013.5279 0 .7292l2.9167 2.9167-2.9167 2.9166c-.2013.2014-.2013.5278 0 .7292.2014.2013.5278.2013.7292 0zm-23.308621-22.7931h.515601zm22.944121-22.428483v.515593zm36.6073.515593c.2848 0 .5156-.230836.5156-.515593 0-.284756-.2308-.5155969-.5156-.5155969zm-36.6074 43.82579c-12.398 0-22.42843-9.8218-22.42842-21.9129h-1.031198c-.000002 12.6826 10.514318 22.9441 23.459618 22.9441zm-22.42842-21.9129c0-12.0891 10.16992-21.9129 22.42852-21.91289v-1.0311899c-12.8017-.0000127-23.459716 10.2593799-23.459718 22.9440799zm22.42852-21.91289h36.6073v-1.0311899h-36.6073z" fill="#5b57ca"/></svg>

<svg width="61" height="50" viewBox="0 0 61 50" fill="none" xmlns="http://www.w3.org/2000/svg">
<path d="M23.9324 45.7792C24.1338 45.5778 24.1338 45.2513 23.9324 45.05L20.6512 41.7687C20.4498 41.5674 20.1234 41.5674 19.922 41.7687C19.7207 41.9701 19.7207 42.2966 19.922 42.4979L22.8387 45.4146L19.922 48.3312C19.7207 48.5326 19.7207 48.859 19.922 49.0604C20.1234 49.2617 20.4498 49.2617 20.6512 49.0604L23.9324 45.7792ZM0.623779 22.9861H1.13938H0.623779ZM23.5679 0.557617V1.07321V0.557617ZM60.1752 1.07321C60.46 1.07321 60.6908 0.842374 60.6908 0.557617C60.6908 0.272861 60.46 0.0420201 60.1752 0.0420201V1.07321ZM23.5678 44.899C11.1698 44.899 1.13937 35.0772 1.13938 22.9861H0.108182C0.10818 35.6687 10.6225 45.9302 23.5678 45.9302V44.899ZM1.13938 22.9861C1.13938 10.897 11.3093 1.0732 23.5679 1.07321V0.0420201C10.7662 0.0420074 0.108184 10.3014 0.108182 22.9861H1.13938ZM23.5679 1.07321H60.1752V0.0420201H23.5679V1.07321Z" fill="#5B57CA"/>
</svg>
